X:1
T:Shoe The Donkey
R:mazurka
M:3/4
L:1/8
K:G
DG|:B2 B2 DG|B2 B2 DG|B2 c2 B2|A3F DF|
|A2 AF DF|A2 AF DF|A2 B2 A2|1 G3G DG:|2 G3A Bc|]
|d2 g2 f2|A3G AB|c2 e2 d2|B3A Bc|
|B2 A2 B2|c3B cd|e2 d2 c2|B3A Bc|
|d2 g2 f2|A3G AB|c2 e2 d2|B3A Bc|
|B2 A2 B2|c3B cd|e2 d2 F2|G3G DG|